X: 10641
Q: "Very slow."
M: 3/4
L: 1/16
K: G
|:\
{B}g3e e8 | {d}e3d B8 | B6 A2 {A}G2ED | E3D D6 B,2 |
{C}e4 e8 | {ef}g6 ed e4 | | e4 d2B2 d4 | B3A G8 :|


